X:5833
T:Schottishe from Lyo
O:england
C:C. Parkinson: Out Of His Tree
M:2/4
L:1/16
K:C
C2DF ECCG,|C2DF ECCE|G2cG E2GE|CDEF G3E:|
|:D3E FEDC|B,G,A,B, CEGE|D3E FEDC|1 B,G,A,B, C4:|2  B,G,A,B, C2||
|:CE|A2Ec A2Ec|AcAc A4|BA^GF EFGA|BA^GF E2:|
|:EF|G2EE G2EE-|EEDF E2EF|G2EE G2EE-|1 EEDF E2:|2 EEDF E4||
|:e2ed cBAG|AcBd c2cd|e2ed cBAG|1 AcBd c2cd:|2 AcBd c4||


